docs/img/ico-gear.svg

<svg width="18" height="18" viewBox="0 0 18 18" fill="none" xmlns="http://www.w3.org/2000/svg">
<g clip-path="url(#clip0)">
<path d="M17.5519 10.5902C17.0522 10.2536 16.5556 9.91552 16.0528 9.58358C16.0374 9.57373 16.0229 9.56254 16.0094 9.55016C16.0237 9.36831 16.0309 9.18492 16.0309 9C16.0309 8.80995 16.0233 8.62157 16.0082 8.43486C16.0254 8.41821 16.0442 8.40328 16.0643 8.39029C16.5717 8.05579 17.0765 7.71694 17.5785 7.37373C17.9855 7.09635 18.0966 6.72637 17.9094 6.27111C17.6888 5.73324 17.4639 5.19538 17.239 4.66021C17.0246 4.14962 16.6963 3.97942 16.1547 4.08623C15.5712 4.20149 14.9877 4.31674 14.4018 4.41855C14.3779 4.42191 14.3536 4.42126 14.33 4.41663C14.0962 4.14544 13.8423 3.89231 13.5704 3.6594C13.5669 3.60952 13.5709 3.5594 13.5823 3.51071C13.7022 2.93443 13.8168 2.35815 13.9213 1.77956C14.0117 1.28281 13.8337 0.965466 13.3717 0.771835C12.8289 0.544395 12.2854 0.319389 11.7411 0.0968158C11.2571 -0.102194 10.9069 0.00307376 10.6121 0.436054C10.2738 0.935499 9.93557 1.43072 9.60345 1.93247C9.58947 1.95432 9.57309 1.97455 9.55464 1.99279C9.3709 1.97857 9.18562 1.97089 8.99842 1.97089C8.81122 1.97089 8.63247 1.97819 8.45219 1.99202C8.43112 1.972 8.41265 1.94942 8.39723 1.92478C8.06626 1.42265 7.728 0.925895 7.38935 0.42645C7.10451 0.00806822 6.74395 -0.0998888 6.27384 0.0933581C5.74145 0.311961 5.21099 0.534407 4.67976 0.756083C4.15775 0.973918 3.98785 1.29395 4.10047 1.85256C4.21579 2.43576 4.33111 3.01895 4.43567 3.60407C4.43762 3.61989 4.43762 3.63589 4.43567 3.65171C4.15496 3.89103 3.89342 4.15192 3.65342 4.432C3.63326 4.43084 3.61321 4.42814 3.59346 4.42393C3.01072 4.30406 2.42644 4.19342 1.84216 4.08047C1.30401 3.97789 0.983811 4.14962 0.773548 4.64907C0.550087 5.17925 0.327523 5.70968 0.105856 6.24037C-0.0990259 6.73098 0.00591355 7.08559 0.446813 7.3841C0.93384 7.71489 1.4201 8.04721 1.91212 8.3707C1.93968 8.38837 1.96543 8.4087 1.989 8.4314C1.97401 8.61889 1.96594 8.80867 1.96594 9C1.96594 9.19133 1.97324 9.37074 1.98746 9.55362C1.96985 9.56984 1.95095 9.58462 1.93096 9.5978C1.4078 9.94357 0.886559 10.2928 0.371472 10.6509C0.0455061 10.8775 -0.0848033 11.2391 0.053194 11.5948C0.299206 12.2262 0.559184 12.8517 0.833129 13.4716C0.984195 13.8147 1.33707 13.986 1.70493 13.9195C2.23962 13.8231 2.77701 13.7332 3.30478 13.6045C3.42073 13.5713 3.54217 13.5618 3.66188 13.5765C3.89953 13.8528 4.1581 14.1104 4.43528 14.3471C4.43462 14.3916 4.42933 14.4359 4.41952 14.4793C4.29997 15.0556 4.18581 15.6319 4.08125 16.2108C3.994 16.6949 4.17351 17.0176 4.62248 17.2063C5.17652 17.4391 5.73184 17.6688 6.28844 17.8955C6.40816 17.937 6.53007 17.9719 6.65362 18C6.95421 17.98 7.18101 17.8521 7.37435 17.5678C7.71647 17.0653 8.05614 16.5612 8.39338 16.0556C8.40494 16.0382 8.41779 16.0216 8.43182 16.0061C8.61915 16.0209 8.8084 16.0285 8.99957 16.0287C9.19074 16.029 9.37986 16.0214 9.56694 16.0061C9.57993 16.0201 9.59164 16.0353 9.60192 16.0514C9.94044 16.5636 10.2834 17.0732 10.6309 17.5801C10.8766 17.9401 11.2425 18.0772 11.6334 17.9259C12.2526 17.6838 12.8666 17.429 13.4755 17.1613C13.8241 17.0076 13.9971 16.6684 13.9313 16.295C13.8191 15.6591 13.688 15.0271 13.5754 14.3909C13.5731 14.3738 13.5731 14.3565 13.5754 14.3395C13.8543 14.1003 14.1142 13.8398 14.3526 13.5603C14.3975 13.5589 14.4423 13.5633 14.486 13.5734C15.0626 13.6932 15.6392 13.8039 16.2185 13.9115C16.709 14.0018 17.0369 13.8208 17.2291 13.3636C17.4566 12.8214 17.682 12.2783 17.9052 11.7343C18.1043 11.2483 17.9913 10.8868 17.5519 10.5902ZM8.99957 12.1523C8.37567 12.1523 7.76576 11.9675 7.24697 11.6211C6.72819 11.2747 6.32383 10.7823 6.08504 10.2063C5.84624 9.63017 5.78375 8.99625 5.90544 8.38466C6.02714 7.77307 6.32757 7.21128 6.76874 6.77036C7.2099 6.32943 7.77198 6.02916 8.3839 5.90752C8.99582 5.78589 9.63008 5.84836 10.2065 6.08702C10.7829 6.32568 11.2755 6.72983 11.6221 7.24834C11.9687 7.76685 12.1536 8.37643 12.1535 9C12.1535 9.83603 11.8212 10.6378 11.2298 11.229C10.6383 11.8202 9.83605 12.1523 8.99957 12.1523Z" fill="#FF6600"/>
</g>
<defs>
<clipPath id="clip0">
<rect width="18" height="18" fill="white"/>
</clipPath>
</defs>
</svg>

<svg width="18" height="18" fill="none" xmlns="http://www.w3.org/2000/svg"><g clip-path="url(#clip0)"><path d="M17.552 10.59c-.5-.336-.996-.674-1.5-1.006a.317.317 0 0 1-.043-.034 7.015 7.015 0 0 0 0-1.115.367.367 0 0 1 .055-.045c.508-.334 1.012-.673 1.514-1.016.407-.278.519-.648.331-1.103-.22-.538-.445-1.076-.67-1.61-.214-.511-.543-.682-1.084-.575-.584.115-1.167.23-1.753.333a.217.217 0 0 1-.072-.002 7.11 7.11 0 0 0-.76-.758.49.49 0 0 1 .012-.148c.12-.577.235-1.153.34-1.731.09-.497-.088-.815-.55-1.008a204.75 204.75 0 0 0-1.63-.675c-.485-.2-.835-.094-1.13.34-.338.498-.676.994-1.009 1.495a.35.35 0 0 1-.048.06 7.203 7.203 0 0 0-1.103 0 .346.346 0 0 1-.055-.067c-.33-.502-.669-1-1.008-1.499C7.105.008 6.744-.1 6.274.093 5.74.312 5.21.534 4.68.756c-.522.218-.692.538-.58 1.097.116.583.231 1.166.336 1.751a.195.195 0 0 1 0 .048c-.281.239-.543.5-.783.78a.397.397 0 0 1-.06-.008c-.582-.12-1.167-.23-1.75-.344-.539-.102-.86.07-1.07.57L.107 6.24c-.205.491-.1.846.34 1.144.488.33.974.663 1.466.987a.5.5 0 0 1 .077.06 7.136 7.136 0 0 0-.002 1.123.445.445 0 0 1-.056.044 80.1 80.1 0 0 0-1.56 1.053c-.325.226-.456.588-.318.944.246.631.506 1.257.78 1.877a.778.778 0 0 0 .872.447c.535-.096 1.072-.186 1.6-.315a.9.9 0 0 1 .357-.027c.238.276.496.533.773.77a.643.643 0 0 1-.015.132c-.12.577-.234 1.153-.339 1.732-.087.484.093.807.541.995.555.233 1.11.463 1.666.69.12.041.242.076.366.104.3-.02.527-.148.72-.432.342-.503.682-1.007 1.02-1.512a.42.42 0 0 1 .038-.05 7.303 7.303 0 0 0 1.135 0 .32.32 0 0 1 .035.045c.338.513.681 1.022 1.029 1.53.246.36.611.496 1.002.345a48.06 48.06 0 0 0 1.843-.765.769.769 0 0 0 .455-.866c-.112-.636-.243-1.268-.356-1.904a.192.192 0 0 1 0-.052c.28-.239.54-.5.778-.779a.52.52 0 0 1 .133.013c.577.12 1.153.23 1.732.338.491.09.819-.09 1.011-.547.228-.543.453-1.086.676-1.63.2-.486.086-.847-.353-1.144zM9 12.152a3.156 3.156 0 0 1-3.095-3.767 3.152 3.152 0 0 1 4.301-2.298 3.154 3.154 0 0 1 1.024 5.142 3.155 3.155 0 0 1-2.23.923z" fill="#F60"/></g><defs><clipPath id="clip0"><path fill="#fff" d="M0 0h18v18H0z"/></clipPath></defs></svg>
